X:1
T:Title
%%score { ( 1 4 5 ) | ( 2 3 6 ) }
L:1/8
Q:1/4=108
M:4/4
K:Db
V:1 treble nm="Grand Piano"
V:4 treble 
V:5 treble 
V:2 bass 
V:3 bass 
V:6 bass 
V:1
 F>F F>F F>E D>F | [FA]2 [FA]4 [Fd]2 | [Gc]>[CG] [Gc]>G c2 B2 | [GB]2 [FA]2 [FA]2 [A,EG]2 | %4
w: Charles~H.~Gabriel * * * * * * *||||
 F>F F>F F>E D>F | [FA]2 [FA]4 [FB]2 | c>E c>d c>B A>=G | A8 | z4 d4 | d>c B>d A2 [FA]>[FA] | %10
w: ||||||
 [DFA]2 [EG]2 [A,CE]2 [CGB]2 | [DFA]4 F2 (3ABc | z4 d4 | d>c B>d A2 [FA]>[FA] | z2 B2 z4 | %15
w: |||||
 [Gc]4 [Fd]4 |] %16
w: |
V:2
 [D,A,D]>[D,A,D] [D,A,D]>[D,A,D] [D,A,D]>[D,G,D] [D,F,]>[D,A,D] | [D,D]2 [D,D]4 [D,A,]2 | %2
 [E,A,]>[E,A,] [E,A,]>[E,A,C][K:treble] [A,EG]2 [A,CG]2 | [D,D]2 [D,D]2 DA, A,,2 | %4
 [D,A,D]>[D,A,D] [D,A,D]>[D,A,D] [D,A,D]>[D,G,D] [D,F,]>[D,A,D] | [D,D]2 [D,D]4 [D,D]2 | %6
 [E,A,E]>[E,A,C] [E,A,E]>[E,B,E] [E,A,E]>[E,DE] [E,CE]>[E,B,D] | z z/ B,/ C>D E4 | z4 A,4 | %9
 [G,B,G]>[G,B,G] [G,DG]>[B,DG] [DF]2[K:bass] [D,D]>[D,D] | A,2 A,2 A,,2 A,,2 | %11
 D,4 [D,A,D]2 [A,G]2 | z4 A,4 | [G,B,G]>[G,B,G] [G,DG]>[B,DG] [DF]2[K:bass] [D,D]>[D,D] | %14
 [G,D]2 [F,=D]2 [E,_D]2 [E,E]>[E,E] | A,2 A,2 [D,A,]4 |] %16
V:3
 x8 | x8 | x4[K:treble] x4 | z4 D,2 z2 | x8 | x8 | x8 | A,,8 | %8
 [D,A,]>[D,A,] [D,A,]>[D,A,] D,2 (3z E,F, | x6[K:bass] x2 | x8 | x8 | %12
 [D,A,]>[D,A,] [D,A,]>[D,A,] D,2 (3z E,F, | x6[K:bass] x2 | x8 | x8 |] %16
V:4
 x8 | x8 | x8 | x8 | x8 | x8 | x8 | [A,C]>D E>F G4 | [Fd]>[Fd] [Fd]>[Fd] F2 (3z GA | x8 | x8 | x8 | %12
 [Fd]>[Fd] [Fd]>[Fd] F2 (3z GA | x8 | [GB]2 A2- [=GAe]2 [GB]>[GB] | E2 z2 z4 |] %16
V:5
 x8 | x8 | x8 | x8 | x8 | x8 | x8 | x8 | z4 z2 F2 | x8 | x8 | x8 | z4 z2 F2 | x8 | x8 | x8 |] %16
V:6
 x8 | x8 | x4[K:treble] x4 | x8 | x8 | x8 | x8 | x8 | z4 z2 D,2 | x6[K:bass] x2 | x8 | x8 | %12
 z4 z2 D,2 | x6[K:bass] x2 | x8 | x8 |] %16

